packages/ui-icons/svg/Line/deactivate-user.svg

<svg viewBox="0 0 1920 1920" version="1.1" xmlns="http://www.w3.org/2000/svg">
    <path d="M1285.31639,1467.34405 C1166.21041,1550.13985 944.064891,1669.78138 649.298998,1655.6429 C410.765697,1644.39638 225.787246,1550.46118 107.109699,1467.45116 L107.109699,1316.10515 C107.109699,1187.68062 189.155729,1077.14342 302.156462,1053.36506 C415.906963,1029.4796 532.335206,1015.76956 648.120791,1012.8776 C795.075299,1009.02165 944.921768,1022.73169 1090.59096,1053.47217 C1203.37747,1077.25052 1285.31639,1187.68062 1285.31639,1316.21226 L1285.31639,1467.34405 Z M428.438798,637.993647 L428.438798,631.031517 C474.388859,618.606792 503.736916,591.722257 526.765502,570.407427 C553.542927,545.772196 569.716491,530.883948 607.311996,530.883948 C644.157732,530.883948 660.117078,545.665087 686.573173,570.193208 C717.742096,598.791497 760.371756,637.993647 839.740044,637.993647 C897.686391,637.993647 935.496115,616.678817 963.987295,594.078671 L963.987295,637.993647 C963.987295,785.697923 843.917322,905.767896 696.213046,905.767896 C548.508771,905.767896 428.438798,785.697923 428.438798,637.993647 L428.438798,637.993647 Z M696.213046,263.109699 C819.817639,263.109699 923.07139,347.726362 953.811873,461.798192 C940.530271,471.545175 929.069533,482.041925 918.358563,491.896017 C892.009577,516.209919 876.264451,530.883948 839.740044,530.883948 C802.144539,530.883948 785.970974,515.9957 759.19355,491.360469 C728.345956,462.869289 685.930515,423.774249 607.311996,423.774249 C527.943708,423.774249 485.314048,463.083508 454.145126,491.681798 C445.46924,499.715025 437.864451,506.248717 430.366772,512.032641 C440.220865,373.32558 555.042462,263.109699 696.213046,263.109699 L696.213046,263.109699 Z M1112.65556,948.718885 C1055.45898,936.615489 997.512631,927.832494 939.566283,920.763254 C1019.47012,851.998827 1071.09699,751.422819 1071.09699,637.993647 L1071.09699,530.883948 C1071.09699,324.269338 902.934766,156 696.213046,156 C489.491326,156 321.329098,324.269338 321.329098,530.883948 L321.329098,637.993647 C321.329098,751.2086 372.741754,851.570388 452.43137,920.441925 C394.592133,927.404055 336.967114,936.615489 280.091864,948.611776 C117.820669,982.67266 0,1137.23196 0,1316.10515 L0,1521.97 L21.743269,1538.03645 C150.917566,1633.25697 363.744539,1749.471 644.264842,1762.64549 C661.509504,1763.39526 678.539946,1763.8237 695.356169,1763.8237 C1013.79331,1763.8237 1253.07637,1624.25976 1370.57571,1538.03645 L1392.42609,1522.07711 L1392.42609,1316.21226 C1392.42609,1137.33907 1274.71253,982.77977 1112.65556,948.718885 L1112.65556,948.718885 Z M1839.91504,156 L1639.64602,356.269027 L1439.49027,156 L1359.29204,236.084956 L1559.56106,436.353982 L1359.29204,636.623009 L1439.49027,716.707965 L1639.64602,516.438938 L1839.91504,716.707965 L1920,636.623009 L1719.73097,436.353982 L1920,236.084956 L1839.91504,156 Z" stroke="none" stroke-width="1" fill-rule="evenodd"/>
</svg>

<svg viewBox="0 0 1920 1920" xmlns="http://www.w3.org/2000/svg">
    <path d="M1285.316 1467.344c-119.106 82.796-341.251 202.437-636.017 188.299-238.533-11.247-423.512-105.182-542.19-188.192v-151.346c0-128.424 82.047-238.962 195.047-262.74 113.751-23.885 230.18-37.595 345.965-40.487 146.954-3.856 296.8 9.854 442.47 40.594 112.786 23.779 194.725 134.209 194.725 262.74v151.132ZM428.44 637.994v-6.962c45.95-12.425 75.298-39.31 98.327-60.625 26.777-24.635 42.95-39.523 80.546-39.523 36.846 0 52.805 14.781 79.261 39.31 31.17 28.597 73.799 67.8 153.167 67.8 57.946 0 95.756-21.315 124.247-43.915v43.915c0 147.704-120.07 267.774-267.774 267.774S428.44 785.698 428.44 637.994ZM696.213 263.11c123.605 0 226.858 84.616 257.599 198.688-13.282 9.747-24.742 20.244-35.453 30.098-26.35 24.314-42.095 38.988-78.619 38.988-37.595 0-53.769-14.888-80.546-39.524-30.848-28.49-73.263-67.586-151.882-67.586-79.368 0-121.998 39.31-153.167 67.908-8.676 8.033-16.28 14.567-23.778 20.35C440.22 373.327 555.042 263.11 696.213 263.11Zm416.443 685.609c-57.197-12.104-115.143-20.887-173.09-27.956 79.904-68.764 131.531-169.34 131.531-282.77v-107.11C1071.097 324.27 902.935 156 696.213 156S321.329 324.27 321.329 530.884v107.11c0 113.215 51.413 213.576 131.102 282.448-57.839 6.962-115.464 16.173-172.34 28.17C117.822 982.672 0 1137.232 0 1316.105v205.865l21.743 16.066c129.175 95.221 342.002 211.435 622.522 224.61 17.245.75 34.275 1.178 51.091 1.178 318.437 0 557.72-139.564 675.22-225.788l21.85-15.959v-205.865c0-178.873-117.713-333.432-279.77-367.493ZM1839.915 156l-200.269 200.269L1439.49 156l-80.198 80.085 200.27 200.269-200.27 200.269 80.198 80.085 200.156-200.27 200.269 200.27L1920 636.623l-200.269-200.269L1920 236.085 1839.915 156Z" fill-rule="evenodd"/>
</svg>
